X: 18
T:Virginia
B:Willie Clancy
D:Dervish
M:C
L:1/8
K:D
DBBA ~B3 B| BAdB AFEF| DFFA A3 B| AFdB AFEF|
DBBA ~B3 B| BAdB ABde| f2 fe dffe| dBAF BE (3EEE :|
|:defe d3 A| BAFA dAFA| defe defg| afbf af eg|
f2 fe dedB| AF (3FFF AFde| f2 fe dffe| dBAF BE (3EEE :|
